X:1
T:Ak, min Rose visner bort
T:(Salmer og Aandelige Sange, no.1)
T:Carl Nielsen (FS83/1)
T:H. A. Brorson
T:Ak, min Rose visner bort (Salmer og Aandelige Sange, no.1)
T:Copyright (c) 2006 by Choral Public Domain Library (http://www.cpdl.org). Edition may be freely distributed, duplicated, performed or recorded.
T:Copyright (c) 2006 by Choral Public Domain Library (http://www.cpdl.org). Edition may be freely distributed, duplicated, performed or recorded.
T:Copyright (c) 2006 by Choral Public Domain Library (http://www.cpdl.org). Edition may be freely distributed, duplicated, performed or recorded.
T:Copyright (c) 2006 by Choral Public Domain Library (http://www.cpdl.org). Edition may be freely distributed, duplicated, performed or recorded.
C:Carl Nielsen (FS83/1)
Z:H. A. Brorson
Z:Copyright (c) 2006 by Choral Public Domain Library (http://www.cpdl.org).
Z:Edition may be freely distributed, duplicated, performed or recorded.
%%score [ 1 2 3 4 ]
L:1/8
M:3/4
K:G
V:1 treble nm="Soprano" snm="S."
V:2 treble nm="A." snm="A."
V:3 treble-8 transpose=-12 nm="T." snm="T."
V:4 bass nm="Bass" snm="B."
V:1
 B2 B2 AG F2 | E2 G2 F4 | G2 A2 B2 d2 | (cB) A2 B4 | dB F2 G2 | A6 | BG E2 F2 | G6 | A2 c2 B2 G2 | %9
w: “Ak, min Ro- * se|vis- ner bort,|bli- ver baa- de|bleg _ og sort!|Ak, mit Blom- ster|stod|før som Mælk og|Blod,|fal- mer nu fra|
 (AG) F4 | !fermata!E6 |] %11
w: Top _ til|Rod!”|
"^“Ak, min Rose visner bort,bliver baade bleg og sort!Ak, mit Blomster stodfør som Mælk og Blod,falmer nu fra Top til Rod!”Saa’ man før en Herres Brudse saa ufornøjet ud?Slet bestilt, at manikke bedre kanskønne paa sin ædle Stand.Læs en Gang det første Bud:“Jeg er Herren, jeg din Gud!”Lad det derved staa,at jeg sørge maa,din Sorg intet kan forslaa.Har du da din Tro forgæ’t?Hvem har skabt dig, véd du det?Han, din Skaber védogsaa bedst Besked,sørg du ej, men tro og bed!Jesu Blod for dig udrandt,og hans Aand du fik til Pant,Himlen skal du naa,tvivler du da paa,dine Smuler her at faa?Læs en Gang dit Fadervor!“Fader”, kend ham og derfor!Derpaa alt beror,at du ikkun trordette aller første Ord.Ak, hvad Ære, Fryd og Haabhavde du vel af din Daab,vidste du Beskedom den Herlighed,dig i Pagten er bered?Faar du ved Guds AlterfodJesu Legem, Jesu Blod,den er Sten og Stoki Guds Kirkeflok,som ej deri finder nok.Op med dit beklemte Sind,kig kun i Guds Himle ind!Hør hans Engles Sang,se hans Helgens Rang,dér skal du og staa en Gang!Verden, Verden af dit Sind,luk din Jesus ene ind!Favn ham i din Tro,lad ham i dig bo,saa faar Sjælen nok sin Ro!Hans Adolf Brorson (1694-1764)                   (Troens Rare Klenodie, vol.2 no.5)""^1.2.3.4.5.6.7.8.9.10." z6 |] %12
w: |
V:2
 E2 ^D2 E2 =D2 | (DC) E2 ^D4 | E2 F2 G2 F2 | G2 (ED) D4 | DD C2 G2 | (G2 FE F2) | EE ^C2 D2 | %7
w: “Ak, min Ro- se|vis- * ner bort,|bli- ver baa- de|bleg og _ sort!|Ak, mit Blom- ster|stod _ _ _|før som Mælk og|
 (D2 =CB, C2) | C2 C2 D3 E | E4 ^D2 | !fermata!B,6 |] z6 |] %12
w: Blod, _ _ _|fal- mer nu fra|Top til|Rod!”||
V:3
 G2 F2 E2 A2 | A2 B2 B4 | B2 d2 d2 d2 | G3 F G4 | AB A2 B2 | (e2 d4) | BB A2 A2 | G6 | %8
w: “Ak, min Ro- se|vis- ner bort,|bli- ver baa- de|bleg og sort!|Ak, mit Blom- ster|stod _|før som Mælk og|Blod,|
 =F2 E2 G2 G2 | (ce) B4 | !fermata!G6 |] z6 |] %12
w: fal- mer nu fra|Top _ til|Rod!”||
V:4
 E,2 B,,2 C,2 D,2 | A,2 E,2 B,4 | E,2 D,2 G,A, B,2 | E,2 (C,D,) G,4 | F,G, A,2 E,2 | (C,2 D,4) | %6
w: “Ak, min Ro- se|vis- ner bort,|bli- ver baa- * de|bleg og _ sort!|Ak, mit Blom- ster|stod _|
 G,E, A,2 D,2 | E,6 | (=F,=F,,) A,,2 (G,,A,,)(B,,C,) | A,,2 B,,4 |"^rev.1(11/06)" !fermata!E,,6 |] %11
w: før som Mælk og|Blod,|fal- * mer nu _ fra _|Top til|Rod!”|
 z6 |] %12
w: |

